X:1
T:Ye princes that in might excel
T:Joseph Stephenson
T:p43, Church Harmony Sacred to Devotion, 4th ed. London: [c1763-1771]
T:This edition by Edmund Gooch released into the public domain, October 2013.
T:Ye princes that in might excel
T:Ps. 29th.
C:Joseph Stephenson
Z:p43, Church Harmony
Z:Sacred to Devotion, 4th ed.
Z:London: [c1763-1771]
%%score [ 1 2 3 4 ]
L:1/8
M:2/4
K:G
V:1 treble nm="SOPRANO" snm="S."
V:2 treble nm="ALTO" snm="A."
V:3 treble-8 transpose=-12 nm="TENOR" snm="T."
V:4 bass nm="BASS" snm="B."
V:1
 D4 | G2 G2 | F2 G2 | B2 A2 | A4 | A4 | B2 (Bc) | d2 (dc/B/) | (AG) F2 | G4 | d4 | B2 c2 | B2 A2 | %13
w: ’Tis|he that|with a-|ma- zing|noise,|The|wat- ’ry _|clouds in _ _|sun- * der|breaks;|The|o- cean|trem- bles|
w: Ye|prin- ces|that in|might ex-|cel,|Your|grate- ful _|sac- ri- * *|fice _ pre-|pare;|God’s|glo- rious|ac- tions|
w: To|his great|name fresh|al- tars|raise,|De-|vout- ly _|due re- * *|spect _ af-|ford;|Him|in his|ho- ly|
 (G>A) (B>c) | d4 | F4 | G2 A2 | B2 e2 | Td3 c | B4 |] %20
w: at _ his _|voice,|When|he from|heav'n in|thun- der|speaks.|
w: loud- * ly _|tell,|His|wond- rous|pow’r to|all de-|clare.|
w: tem- * ple _|praise,|Where|he’s with|so- lemn|state a-|dor’d.|
V:2
 B,4 | D2 D2 | F2 D2 | G2 E2 | F4 | F4 | D2 G2 | F2 G2 | E2 D2 | D4 | D4 | D2 C2 | F2 (ED) | %13
w: ’Tis|he that|with a-|ma- zing|noise,|The|wat- ’ry|clouds in|sun- der|breaks;|The|o- cean|trem- bles _|
w: Ye|prin- ces|that in|might ex-|cel,|Your|grate- ful|sac- ri-|fice pre-|pare;|God’s|glo- rious|ac- tions _|
w: To|his great|name fresh|al- tars|raise,|De-|vout- ly|due re-|spect af-|ford;|Him|in his|ho- ly _|
 D2 G2 | F4 | D4 | B,2 D2 | D2 (EF/G/) | G2 F2 | G4 |] %20
w: at his|voice,|When|he from|heav'n in _ _|thun- der|speaks.|
w: loud- ly|tell,|His|wond- rous|pow’r to _ _|all de-|clare.|
w: tem- ple|praise,|Where|he’s with|so- lemn _ _|state a-|dor’d.|
V:3
 G4 | B2 B2 | d2 B2 | e2 ^c2 | d4 | d4 | B2 G2 | A2 d2 | (cB) A2 | G4 | B4 | d2 e2 | d2 c2 | %13
w: ’Tis|he that|with a-|ma- zing|noise,|The|wat- ’ry|clouds in|sun- * der|breaks;|The|o- cean|trem- bles|
w: Ye|prin- ces|that in|might ex-|cel,|Your|grate- ful|sac- ri-|fice _ pre-|pare;|God’s|glo- rious|ac- tions|
w: To|his great|name fresh|al- tars|raise,|De-|vout- ly|due re-|spect _ af-|ford;|Him|in his|ho- ly|
 B2 G2 | A4 | d4 | e2 c2 | B2 c2 | TA3 (A/G/) | G4 |] %20
w: at his|voice,|When|he from|heav'n in|thun- der _|speaks.|
w: loud- ly|tell,|His|wond- rous|pow’r to|all de- *|clare.|
w: tem- ple|praise,|Where|he’s with|so- lemn|state a- *|dor’d.|
V:4
 G,4 | G,2 G,2 | D,2 G,2 | E,2 A,2 | D,4 | D,4 | G,2 E,2 | D,2 B,,2 | C,2 D,2 | G,,4 | %10
w: ’Tis|he that|with a-|ma- zing|noise,|The|wat- ’ry|clouds in|sun- der|breaks;|
w: Ye|prin- ces|that in|might ex-|cel,|Your|grate- ful|sac- ri-|fice pre-|pare;|
w: To|his great|name fresh|al- tars|raise,|De-|vout- ly|due re-|spect af-|ford;|
"^Notes:The alto part is notated in the alto clef in the source.The opening words of the first verse of the text are given in the source, as ‘Ye Princes that in might &c.’.The remainder of this verse, and three other verses from this text, have been given here." G,4 | %11
w: The|
w: God’s|
w: Him|
 B,2 A,2 | D,2 (E,F,) | G,2 G,,2 | D,4 | D,4 | G,2 F,2 | G,2 C,2 | D,3 D, | G,,4 |] %20
w: o- cean|trem- bles _|at his|voice,|When|he from|heav'n in|thun- der|speaks.|
w: glo- rious|ac- tions _|loud- ly|tell,|His|wond- rous|pow’r to|all de-|clare.|
w: in his|ho- ly _|tem- ple|praise,|Where|he’s with|so- lemn|state a-|dor’d.|

